assets/images/coffee.svg

<svg xmlns="http://www.w3.org/2000/svg" viewBox="0 0 45 45" enable-background="new 0 0 45 45"><style type="text/css">.st0{display:none;} .st1{display:inline;fill:#D2D5D7;} .st2{display:inline;fill:#E6E6E6;} .st3{display:inline;fill:#659C35;} .st4{display:inline;} .st5{fill:#E6E6E6;} .st6{display:inline;fill:#FFFFFF;} .st7{fill:#FFFFFF;} .st8{fill:#D2D5D7;} .st9{fill:#4CBA35;}</style><g class="st0"><path class="st1" d="M38 13h-31c-1.1 0-2-.9-2-2v-3.9c0-1.1.9-2 2-2h31c1.1 0 2 .9 2 2v3.9c0 1.1-.9 2-2 2z"/><path class="st2" d="M36.6 5.1h-28.2v-3.4c0-.9.8-1.7 1.7-1.7l24.8 1.7c.9 0 1.7.8 1.7 1.7v1.7z"/><path class="st3" d="M8 13l3 30.3c0 .9.8 1.7 1.7 1.7h19.6c.9 0 1.7-.8 1.7-1.7l3-30.3h-29z"/><g class="st4"><path class="st5" d="M15.7 24c1.6-2.1 4-3.4 6.8-3.4s5.3 1.3 6.8 3.4l6.7-1.2 1-9.8h-29l1 9.8 6.7 1.2zM29.3 32c-1.6 2.1-4 3.4-6.8 3.4s-5.3-1.4-6.8-3.4l-5.7 1 1 10.2c0 .9.8 1.7 1.7 1.7h19.6c.9 0 1.7-.8 1.7-1.7l1-10.2-5.7-1z"/></g><ellipse class="st6" cx="22.5" cy="28" rx="6.5" ry="5.8"/></g><path class="st5" d="M11 43.2c0 .9.8 1.7 1.7 1.7h19.6c.9 0 1.7-.8 1.7-1.7l3-30.2h-29l3 30.2z"/><ellipse class="st7" cx="22.5" cy="28" rx="6.5" ry="5.8"/><path class="st8" d="M38 13h-31c-1.1 0-2-.9-2-2v-3.9c0-1.1.9-2 2-2h31c1.1 0 2 .9 2 2v3.9c0 1.1-.9 2-2 2z"/><path class="st5" d="M36.6 5.1h-28.2v-3.4c0-.9.8-1.7 1.7-1.7l24.8 1.7c.9 0 1.7.8 1.7 1.7v1.7z"/><path class="st9" d="M29.3 24c-1.6-2.1-4-3.4-6.8-3.4s-5.3 1.3-6.8 3.4l-6.8-1.3 1.1 10.3 5.7-1.1c1.6 2.1 4 3.4 6.8 3.4s5.3-1.3 6.8-3.4l5.7 1.1 1-10.3-6.7 1.3zm-6.8 9.8c-3.6 0-6.5-2.6-6.5-5.8s2.9-5.8 6.5-5.8 6.5 2.6 6.5 5.8-2.9 5.8-6.5 5.8z"/></svg>

<?xml version="1.0" encoding="utf-8"?>
<!-- Generator: Adobe Illustrator 21.0.0, SVG Export Plug-In . SVG Version: 6.00 Build 0)  -->
<svg version="1.1" id="Capa_1" xmlns="http://www.w3.org/2000/svg" xmlns:xlink="http://www.w3.org/1999/xlink" x="0px" y="0px"
	 viewBox="0 0 45 45" style="enable-background:new 0 0 45 45;" xml:space="preserve">
<style type="text/css">
	.st0{display:none;}
	.st1{display:inline;fill:#D2D5D7;}
	.st2{display:inline;fill:#E6E6E6;}
	.st3{display:inline;fill:#659C35;}
	.st4{display:inline;}
	.st5{fill:#E6E6E6;}
	.st6{display:inline;fill:#FFFFFF;}
	.st7{fill:#FFFFFF;}
	.st8{fill:#D2D5D7;}
	.st9{fill:#4CBA35;}
</style>
<g class="st0">
	<path class="st1" d="M38,13H7c-1.1,0-2-0.9-2-2V7.1c0-1.1,0.9-2,2-2h31c1.1,0,2,0.9,2,2V11C40,12.1,39.1,13,38,13z"/>
	<path class="st2" d="M36.6,5.1H8.4V1.7C8.4,0.8,9.2,0,10.1,0l24.8,1.7c0.9,0,1.7,0.8,1.7,1.7V5.1z"/>
	<path class="st3" d="M8,13l3,30.3c0,0.9,0.8,1.7,1.7,1.7h19.6c0.9,0,1.7-0.8,1.7-1.7L37,13H8z"/>
	<g class="st4">
		<path class="st5" d="M15.7,24c1.6-2.1,4-3.4,6.8-3.4s5.3,1.3,6.8,3.4l6.7-1.2l1-9.8H8l1,9.8L15.7,24z"/>
		<path class="st5" d="M29.3,32c-1.6,2.1-4,3.4-6.8,3.4S17.2,34,15.7,32L10,33l1,10.2c0,0.9,0.8,1.7,1.7,1.7h19.6
			c0.9,0,1.7-0.8,1.7-1.7L35,33L29.3,32z"/>
	</g>
	<ellipse class="st6" cx="22.5" cy="28" rx="6.5" ry="5.8"/>
</g>
<g>
	<path class="st5" d="M11,43.2c0,0.9,0.8,1.7,1.7,1.7h19.6c0.9,0,1.7-0.8,1.7-1.7L37,13H8L11,43.2z"/>
	<ellipse class="st7" cx="22.5" cy="28" rx="6.5" ry="5.8"/>
	<path class="st8" d="M38,13H7c-1.1,0-2-0.9-2-2V7.1c0-1.1,0.9-2,2-2h31c1.1,0,2,0.9,2,2V11C40,12.1,39.1,13,38,13z"/>
	<path class="st5" d="M36.6,5.1H8.4V1.7C8.4,0.8,9.2,0,10.1,0l24.8,1.7c0.9,0,1.7,0.8,1.7,1.7V5.1z"/>
	<path class="st9" d="M29.3,24c-1.6-2.1-4-3.4-6.8-3.4c-2.8,0-5.3,1.3-6.8,3.4l-6.8-1.3L10,33l5.7-1.1c1.6,2.1,4,3.4,6.8,3.4
		s5.3-1.3,6.8-3.4L35,33l1-10.3L29.3,24z M22.5,33.8c-3.6,0-6.5-2.6-6.5-5.8s2.9-5.8,6.5-5.8S29,24.8,29,28S26.1,33.8,22.5,33.8z"/>
</g>
</svg>
